svgs/thin/bin-bottles.svg

<svg xmlns="http://www.w3.org/2000/svg" viewBox="0 0 640 512"><!--! Font Awesome Pro 6.6.0 by @fontawesome - https://fontawesome.com License - https://fontawesome.com/license (Commercial License) Copyright 2024 Fonticons, Inc. --><path d="M384 24c0-13.3 10.7-24 24-24l80 0c13.3 0 24 10.7 24 24l0 8-16 0 0-8c0-4.4-3.6-8-8-8l-80 0c-4.4 0-8 3.6-8 8l0 8-16 0 0-8zM352 192l-16 0c0-44.2-35.8-80-80-80l-128 0c-44.2 0-80 35.8-80 80l-16 0c0-53 43-96 96-96l128 0c53 0 96 43 96 96zm223.1 0l-16.2 0c-1.1-6.5-3.5-12.6-6.9-17.9c-3.4-5.4-3.4-12.3 .2-17.6c4.7-7 7.4-15.3 7.4-24.4c0-17-9.8-32.5-25.2-39.7l-13.2-6.2c-8.9-4.1-18.5-6.3-28.3-6.3l-90.6 0c-9.8 0-19.4 2.2-28.3 6.3l-13.2 6.2c-5.2 2.4-9.7 5.8-13.5 9.9c-3.7-3.8-7.7-7.4-11.9-10.7c5.2-5.6 11.5-10.3 18.6-13.6l13.1-6.2c11-5.1 23-7.8 35.1-7.8l90.6 0C505 64 517 66.7 528 71.8L541.2 78c21 9.9 34.5 31 34.5 54.2c0 12.3-3.7 23.8-10.1 33.3c5 7.8 8.4 16.9 9.6 26.5zM32 224l15.2 0 .9 0 543.8 0 .9 0 15.2 0 24 0c4.4 0 8 3.6 8 8s-3.6 8-8 8l-25.8 0L583.9 440.8c-4.5 40.5-38.7 71.2-79.5 71.2l-368.8 0c-40.8 0-75-30.6-79.5-71.2L33.8 240 8 240c-4.4 0-8-3.6-8-8s3.6-8 8-8l24 0zm558.1 16L49.9 240 72 439.1c3.6 32.4 31 56.9 63.6 56.9l368.8 0c32.6 0 60-24.5 63.6-56.9L590.1 240zM144 32l0 24c0 4.4-3.6 8-8 8l-16 0c-4.4 0-8-3.6-8-8s3.6-8 8-8l8 0 0-16c0-17.7 14.3-32 32-32l64 0c17.7 0 32 14.3 32 32l0 16 8 0c4.4 0 8 3.6 8 8s-3.6 8-8 8l-16 0c-4.4 0-8-3.6-8-8l0-24c0-8.8-7.2-16-16-16l-64 0c-8.8 0-16 7.2-16 16z"/></svg>

<svg xmlns="http://www.w3.org/2000/svg" viewBox="0 0 640 512"><!--! Font Awesome Pro 6.4.2 by @fontawesome - https://fontawesome.com License - https://fontawesome.com/license (Commercial License) Copyright 2023 Fonticons, Inc. --><path d="M384 24c0-13.3 10.7-24 24-24h80c13.3 0 24 10.7 24 24v8H496V24c0-4.4-3.6-8-8-8H408c-4.4 0-8 3.6-8 8v8H384V24zM352 192H336c0-44.2-35.8-80-80-80H128c-44.2 0-80 35.8-80 80H32c0-53 43-96 96-96H256c53 0 96 43 96 96zm223.1 0H558.9c-1.1-6.5-3.5-12.6-6.9-17.9c-3.4-5.4-3.4-12.3 .2-17.6c4.7-7 7.4-15.3 7.4-24.4c0-17-9.8-32.5-25.2-39.7l-13.2-6.2c-8.9-4.1-18.5-6.3-28.3-6.3H402.3c-9.8 0-19.4 2.2-28.3 6.3l-13.2 6.2c-5.2 2.4-9.7 5.8-13.5 9.9c-3.7-3.8-7.7-7.4-11.9-10.7c5.2-5.6 11.5-10.3 18.6-13.6l13.1-6.2c11-5.1 23-7.8 35.1-7.8h90.6C505 64 517 66.7 528 71.8L541.2 78c21 9.9 34.5 31 34.5 54.2c0 12.3-3.7 23.8-10.1 33.3c5 7.8 8.4 16.9 9.6 26.5zM32 224H47.2h.9H591.9h.9H608h24c4.4 0 8 3.6 8 8s-3.6 8-8 8H606.2L583.9 440.8c-4.5 40.5-38.7 71.2-79.5 71.2H135.6c-40.8 0-75-30.6-79.5-71.2L33.8 240H8c-4.4 0-8-3.6-8-8s3.6-8 8-8H32zm558.1 16H49.9L72 439.1c3.6 32.4 31 56.9 63.6 56.9H504.4c32.6 0 60-24.5 63.6-56.9L590.1 240zM144 32V56c0 4.4-3.6 8-8 8H120c-4.4 0-8-3.6-8-8s3.6-8 8-8h8V32c0-17.7 14.3-32 32-32h64c17.7 0 32 14.3 32 32V48h8c4.4 0 8 3.6 8 8s-3.6 8-8 8H248c-4.4 0-8-3.6-8-8V32c0-8.8-7.2-16-16-16H160c-8.8 0-16 7.2-16 16z"/></svg>
